icons/right-angle-32.svg

<svg xmlns="http://www.w3.org/2000/svg" viewBox="0 0 32 32"><path d="M27 27v1H5v-1H4V5h1V2H2v3h1v22H2v3h3v-1h22v1h3v-3zM3 3h1v1H3zm1 26H3v-1h1zm25 0h-1v-1h1z"/><path fill="none" d="M0 0h32v32H0z"/></svg>

<svg id="icons" xmlns="http://www.w3.org/2000/svg" viewBox="0 0 32 32"><defs><style>.cls-1{fill:none;}</style></defs><path d="M27,27v1H5V27H4V5H5V2H2V5H3V27H2v3H5V29H27v1h3V27ZM3,3H4V4H3ZM4,29H3V28H4Zm25,0H28V28h1Z"/><rect class="cls-1" width="32" height="32"/></svg>
